X: 1706
T: Mick Pilley's 1st Schottische
B: australian traditional tunes wiki
M:4/4
L:1/8
R: Barn Dance
Q: 1/4=100
K:G
V:1 
"G"B2 B>A G2G>A|B>A B>c d2 d>B|"D7"c2 c>BA2A>B|c>B c>d e2 d>c|
"G"B2 B>A G2G>A|B>A B>c d2 d>B|"C"c2 c>B"D7"A2 d>c|"G"B<G G2 G4|
"G"g2g>e d2d>f|g>f g>e d2 d>e|"D7"f2f>e d2 d>e|f>g e>f d2 d>d|
"G"e>g g>g e>g g>g|"D7"d<c c>d "Em"B2 B>B|"C"c2c>B "D7"A2 d>c|"G"B<G G2 G4|]
% abcbook-tune_id 6342d53a06c86056889cf1e4


% abcbook-boost 0
% abcbook-tablature 
% abcbook-transpose 
% abcbook-lastupdated 1665324379050
% abcbook-soundfonts 
% abcbook-repeats 1
% NFF Book 2015

